X:1
T: Benjamin Armstrong Wright
C:Bruce Shawyer
R:Jig
Q:180
K:G
M:6/8
L:1/16
|:D2|G2D2G2 B2G2B2|c2G2c2 e2d2c2|d2f2d2 a2f2d2|B2g2B2 A4B2|
G2D2G2 B2G2B2|c2G2c2 e2d2c2|c2B2A2 B2A2G2|A2G2F2 G4d2|
g2b2g2 e2g2e2|f2a2f2 d4B2|c2f2c2 a2f2c2|B2g2B2 A4D2|
G2D2G2 B2G2B2|c2G2c2 e2d2c2|c2B2A2 B2A2G2|A2G2F2 G4:|

